assets/logos/bbb.svg

<?xml version="1.0" encoding="UTF-8"?>
<svg enable-background="new 0 0 44.7 44.7" version="1.1" viewBox="0 0 44.7 44.7" xml:space="preserve" xmlns="http://www.w3.org/2000/svg">
<style type="text/css">
	.st0{fill:#FFFFFF;}
</style>

	
		<path class="st0" d="m23.8 18.5c-1.4-1.4-4.7-2.1-5.1-4.4 0.1-0.3-0.3-0.3-0.3-0.2-1 2.7-6 5.8 0.7 9.3 1.5 0.9 3.5 2.1 3.3 3.8-0.1 0.2 0.1 0.2 0.3 0.1 2.1-2.5 3.8-6.1 1.1-8.6z"/>
	


	
		<path class="st0" d="m30.3 8.3c-2.2-2.4-6.8-4-7.7-6.3-0.2-0.4 0-1.1 0.3-1.6 0.2-0.3-0.1-0.4-0.3-0.4-0.1 0-0.2 0-0.2 0.1-1.9 4-8.8 7.9-0.3 14 2.3 1.7 6.2 2.8 4.2 6.8-0.1 0.2 0 0.3 0.2 0.3 0.1 0 0.2 0 0.4-0.1 2.7-3.3 7.3-8.5 3.4-12.8z"/>
	


	
		<polygon class="st0" points="30.7 28 30.7 28 13.9 28 13.9 28 13.1 30.1 13.9 30.1 13.9 30.1 17.6 30.1 18.6 32.9 25.9 32.9 26.9 30.1 30.7 30.1 30.7 30.1 31.4 30.1"/>
	


	
		<path class="st0" d="m34.3 39.6c2.3-1.7 0.9-4.9-0.8-4.8h-3.6-2.2v10h2.2l3.9-0.1c2.4-0.1 3.5-4.2 0.5-5.1zm-4.4-0.9v-2.2l2.8 0.1c0.9 0 1.4 2.2 0 2.2-0.1-0.1-2.8-0.1-2.8-0.1zm3.1 4.2h-3.2v-2.3l3.2-0.1c1.3 0 1.2 2.4 0 2.4z"/>
	


	
		<path class="st0" d="m24.8 39.6c2.3-1.7 0.9-4.9-0.8-4.8h-3.6-2.2v10h2.2l3.9-0.1c2.5-0.1 3.6-4.2 0.5-5.1zm-4.4-3.2 2.8 0.1c0.9 0 1.4 2.2 0 2.2h-2.7v-2.3zm3.1 6.5h-3.2v-2.3l3.2-0.1c1.3 0 1.2 2.4 0 2.4z"/>
	


	
		<path class="st0" d="m15.2 39.6c2.3-1.7 0.9-4.9-0.8-4.8h-3.6-2.2v10h2.2l3.9-0.1c2.5-0.1 3.6-4.2 0.5-5.1zm-4.4-3.2 2.8 0.1c0.9 0 1.4 2.2 0 2.2h-2.7v-2.3zm3.1 6.5h-3.2v-2.3l3.2-0.1c1.3 0 1.2 2.4 0 2.4z"/>
	

</svg>

<?xml version="1.0" encoding="utf-8"?>
<!-- Generator: Adobe Illustrator 26.5.0, SVG Export Plug-In . SVG Version: 6.00 Build 0)  -->
<svg version="1.1" id="Capa_1" xmlns="http://www.w3.org/2000/svg" xmlns:xlink="http://www.w3.org/1999/xlink" x="0px" y="0px"
	 viewBox="0 0 44.7 44.7" style="enable-background:new 0 0 44.7 44.7;" xml:space="preserve">
<style type="text/css">
	.st0{fill:#FFFFFF;}
</style>
<g>
	<g>
		<path class="st0" d="M23.8,18.5c-1.4-1.4-4.7-2.1-5.1-4.4c0.1-0.3-0.3-0.3-0.3-0.2c-1,2.7-6,5.8,0.7,9.3c1.5,0.9,3.5,2.1,3.3,3.8
			c-0.1,0.2,0.1,0.2,0.3,0.1C24.8,24.6,26.5,21,23.8,18.5z"/>
	</g>
</g>
<g>
	<g>
		<path class="st0" d="M30.3,8.3c-2.2-2.4-6.8-4-7.7-6.3c-0.2-0.4,0-1.1,0.3-1.6C23.1,0.1,22.8,0,22.6,0c-0.1,0-0.2,0-0.2,0.1
			c-1.9,4-8.8,7.9-0.3,14c2.3,1.7,6.2,2.8,4.2,6.8c-0.1,0.2,0,0.3,0.2,0.3c0.1,0,0.2,0,0.4-0.1C29.6,17.8,34.2,12.6,30.3,8.3z"/>
	</g>
</g>
<g>
	<g>
		<polygon class="st0" points="30.7,28 30.7,28 13.9,28 13.9,28 13.1,30.1 13.9,30.1 13.9,30.1 17.6,30.1 18.6,32.9 25.9,32.9 
			26.9,30.1 30.7,30.1 30.7,30.1 31.4,30.1 		"/>
	</g>
</g>
<g>
	<g>
		<path class="st0" d="M34.3,39.6c2.3-1.7,0.9-4.9-0.8-4.8l-3.6,0h-2.2v10h2.2v0l3.9-0.1C36.2,44.6,37.3,40.5,34.3,39.6z M29.9,38.7
			v-2.2l2.8,0.1c0.9,0,1.4,2.2,0,2.2C32.6,38.7,29.9,38.7,29.9,38.7z M33,42.9l-3.2,0v-2.3l3.2-0.1C34.3,40.5,34.2,42.9,33,42.9z"/>
	</g>
</g>
<g>
	<g>
		<path class="st0" d="M24.8,39.6c2.3-1.7,0.9-4.9-0.8-4.8l-3.6,0h0h-2.2v10h2.2v0l3.9-0.1C26.8,44.6,27.9,40.5,24.8,39.6z
			 M20.4,36.4l2.8,0.1c0.9,0,1.4,2.2,0,2.2h-2.7V36.4z M23.5,42.9l-3.2,0v-2.3l3.2-0.1C24.8,40.5,24.7,42.9,23.5,42.9z"/>
	</g>
</g>
<g>
	<g>
		<path class="st0" d="M15.2,39.6c2.3-1.7,0.9-4.9-0.8-4.8l-3.6,0h0H8.6v10h2.2v0l3.9-0.1C17.2,44.6,18.3,40.5,15.2,39.6z
			 M10.8,36.4l2.8,0.1c0.9,0,1.4,2.2,0,2.2h-2.7V36.4z M13.9,42.9l-3.2,0v-2.3l3.2-0.1C15.2,40.5,15.1,42.9,13.9,42.9z"/>
	</g>
</g>
</svg>
